X:3
T:Schottisch G 2+ chords
M:2/4
L:1/8
K:Gmaj%%MIDI gchordon
"G"D2G>B | d3d/2d/2 | dB/2d/2 eB | "D7"ddc2 | D2F>A | d3d/2d/2 | ff/2c/2 ee/2B/2 | "G"ddB2 | 
D2G>B | d3d/2d/2 | dB/2d/2 eB | "D7"ddc2 | D2F>A | d3d | f/2e/2d c/2B/2A |1 "G"Gg/2g/2 gz :|2 "G"Gg/2g/2 gd || 
|: "D7"fg/2f/2 ef/2e/2 | de/2d/2 cF | "G"GB eG | d3G | "D7"FA eF | d3F | "G"GB eG | g3d | 
"D7"fg/2f/2 ef/2e/2 | de/2d/2 cF | "G"GB eG | d3G | "D7"FA e>F | d3F | "G".G2"D7".D2 | "G"GG/2G/2 Gz :| 

